image/Vector-1.svg

<svg width="50" height="50" viewBox="0 0 50 50" fill="none" xmlns="http://www.w3.org/2000/svg">
<path d="M0.00183105 24.1884V24.1183C0.628867 15.915 3.55876 9.76192 8.64868 5.87186C13.6694 1.91164 19.1097 0.00168524 25.0364 0.00168524C31.2421 -0.0684672 37.0304 2.05195 42.1918 6.29504C47.4223 10.468 50.0018 16.6912 50.0018 24.7519V25.2475C50.0018 33.3807 47.4223 39.4613 42.1918 43.6342C36.9613 47.8773 31.1729 50 24.9672 50H24.6883C18.621 49.9298 13.0424 47.8072 7.8833 43.5641C2.72196 39.3911 0.0732373 32.9552 0.0040625 24.1862L0.00183105 24.1884ZM23.5012 13.0862V1.91164H21.8276C21.4795 2.33708 21.2006 2.83041 20.9216 3.25585C20.6427 3.68129 20.3638 4.10447 20.0848 4.60006C19.8059 5.0255 19.4578 5.59125 19.248 6.01443C18.9691 6.43987 18.7594 6.86304 18.5496 7.35864C18.1301 8.06695 17.782 8.773 17.5031 9.4089C17.155 10.0448 16.876 10.683 16.6663 11.2487C17.0858 11.5316 17.5722 11.8846 18.1301 12.0973C18.7571 12.31 19.3864 12.5228 20.0134 12.6631C20.7119 12.8056 21.3389 12.8758 21.8968 12.9459C22.5238 13.0161 23.0817 13.0885 23.5012 13.0885V13.0862ZM26.4311 1.91391V13.0161C26.7792 13.0161 27.1987 13.0862 27.616 13.0161C28.0355 13.0161 28.5219 12.9459 28.9414 12.8735C29.7091 12.731 30.615 12.5205 31.3135 12.3078C32.0811 12.0249 32.7773 11.6719 33.266 11.2464C32.4292 9.19618 31.5232 7.5691 30.615 6.01216C29.7068 4.45523 28.6625 3.11328 27.5468 1.98179V1.91164H26.4311V1.91391ZM18.8999 2.5498V2.47965C18.4113 2.69237 17.9226 3.0454 17.3647 3.25812C16.876 3.47084 16.249 3.75371 15.7603 4.03658C14.7829 4.53217 13.8078 5.09792 12.8304 5.73382C11.9244 6.36971 11.0162 7.07803 10.2509 7.78408C10.5298 8.06695 10.8779 8.34982 11.1568 8.56254C11.4358 8.77526 11.7839 9.05814 12.1342 9.34101C12.4131 9.48358 12.7612 9.69404 13.1116 9.97691C13.4597 10.1896 13.8792 10.4725 14.2965 10.7554C14.8543 9.48132 15.4122 8.13937 16.1106 6.93546C16.8091 5.6614 17.5745 4.45976 18.3421 3.39842C18.4113 3.25585 18.4827 3.11555 18.621 2.97298C18.6902 2.90283 18.7616 2.69237 18.8999 2.5498ZM40.237 7.78182V7.71166C38.4943 6.36745 36.959 5.23596 35.426 4.52991C33.893 3.82386 32.3578 3.11555 30.9631 2.5498C32.0789 3.68129 33.0562 5.09566 33.6833 6.43987C34.3817 7.85423 35.0779 9.33875 35.6358 10.7531C35.9147 10.6105 36.2628 10.4702 36.6823 10.1874C37.0304 9.97464 37.5191 9.76192 37.9386 9.55147C38.3581 9.26859 38.7063 8.98572 39.1235 8.70285C39.543 8.34982 39.9603 8.06695 40.2393 7.78408L40.237 7.78182ZM39.0521 23.5525H47.0719C47.0719 20.9365 46.5141 18.4608 45.4675 15.915C44.4902 13.4393 43.0955 11.389 41.3527 9.62162V9.55147C41.0046 10.1172 40.516 10.6128 40.0273 10.9658C39.4694 11.3189 38.9807 11.6017 38.4229 11.8846C38.0748 12.0973 37.7244 12.3802 37.3763 12.5205C37.0282 12.7332 36.5395 12.8735 36.1914 13.0862C36.4703 13.652 36.7493 14.2879 37.0282 14.8536C37.238 15.4895 37.5861 16.1978 37.7267 16.8337C38.1462 17.9652 38.4251 19.1669 38.704 20.3708C38.9138 21.4321 39.0521 22.5636 39.0521 23.5525ZM13.81 13.0862V13.0161C13.2522 12.7332 12.6251 12.5205 12.1364 12.2376C11.6477 11.8846 11.1591 11.5293 10.7418 11.2464C10.3223 11.0337 9.90499 10.7508 9.55688 10.468C9.20878 10.1851 8.92984 9.90223 8.65091 9.61936C6.83675 11.3867 5.5135 13.3669 4.67671 15.7023C3.77074 18.0354 3.14147 20.6537 2.86254 23.4824H11.4402C11.4402 21.5023 11.7192 19.5923 12.2078 17.6824C12.6273 15.7023 13.2522 14.2177 13.81 13.0862ZM23.5012 23.4824V15.3492C22.9433 15.4194 22.2449 15.4194 21.6178 15.3492C20.9194 15.2791 20.2232 15.0664 19.5962 14.8536C19.0383 14.7111 18.3399 14.5708 17.782 14.358C17.155 14.2155 16.5257 13.9326 16.0392 13.6497C15.6197 14.358 15.2716 15.2067 14.9927 16.1254C14.6446 16.974 14.4348 17.8928 14.2251 18.7414C14.0845 19.5901 14.0153 20.5088 13.9461 21.2873C13.877 22.0658 13.8056 22.8442 13.8056 23.4801H23.499L23.5012 23.4824ZM26.4311 15.4918V23.4824H36.7515C36.7515 23.0569 36.7515 22.5636 36.6823 21.9979C36.5418 21.5023 36.4726 20.8664 36.4034 20.3006C36.1936 19.452 35.9839 18.5332 35.705 17.6846C35.426 16.9062 35.1471 16.1277 34.799 15.4918C34.6584 15.1388 34.5201 14.7133 34.3795 14.4305C34.1697 14.0774 33.96 13.8647 33.8216 13.652C33.054 14.2177 32.0075 14.5708 30.7534 14.8536C29.5685 15.1365 28.1738 15.4194 26.9175 15.4895H26.4288L26.4311 15.4918ZM11.438 25.8155H2.86031C2.86031 27.0172 3.07007 28.3614 3.41817 29.9885C3.76628 31.6857 4.46472 33.2426 5.23234 34.9399C5.58045 35.7885 5.99996 36.6371 6.41724 37.4857C6.90592 38.2642 7.46379 39.1128 8.02165 39.8913C8.44116 39.6084 8.85844 39.3957 9.20654 39.1829C9.62606 38.9702 10.1125 38.6874 10.532 38.4746C11.0207 38.2619 11.5094 38.0492 12.0673 37.7663C12.5559 37.5536 13.183 37.2707 13.81 36.9879C13.2522 35.2205 12.6251 33.5232 12.2056 31.6133C11.7169 29.7735 11.438 27.9359 11.438 25.8857V25.8155ZM23.5012 34.089V25.8155H13.8078C13.8078 26.3813 13.877 27.2299 14.0175 28.0785C14.0867 28.9271 14.2965 29.8459 14.4371 30.7669C14.716 31.7581 14.9257 32.747 15.2047 33.5956C15.4836 34.4443 15.7625 35.1526 16.0415 35.7885C17.2978 35.2929 18.5518 34.9399 19.3886 34.7271C20.2946 34.4443 21.1314 34.2315 21.9682 34.1614H22.7358C23.0147 34.0912 23.2937 34.0912 23.5034 34.0912L23.5012 34.089ZM26.4311 25.8155V34.0188C26.9198 34.089 27.4776 34.1614 28.0355 34.2315C28.6625 34.3017 29.4301 34.4443 30.0572 34.5846L31.1037 34.7973C31.4518 34.9399 31.8713 35.01 32.2194 35.0802C32.639 35.2227 33.0562 35.2929 33.4757 35.4332C33.8239 35.5758 34.1742 35.6459 34.4531 35.7862C35.3591 33.4531 35.917 31.5431 36.2673 29.916C36.6154 28.3591 36.756 27.0172 36.756 25.8857V25.8155H26.4355H26.4311ZM47.0719 25.8857V25.8155H39.0521V26.241C38.983 27.5852 38.7732 29.1398 38.4943 30.7669C38.2153 32.3238 37.5883 34.1614 36.7515 36.4244C37.8672 36.9901 38.9138 37.5559 39.7506 38.1216C40.5874 38.6874 41.355 39.3232 41.9128 39.889C43.0977 38.6874 44.1443 37.0603 45.0503 34.9376C45.9562 32.8873 46.5855 30.7647 46.9336 28.5017C47.0028 28.0762 47.0028 27.6531 47.0742 27.2276V25.8834L47.0719 25.8857ZM23.5012 47.384V36.352C21.7584 36.6348 20.2924 36.9879 19.1766 37.2707C18.0609 37.5536 17.2241 37.8365 16.6663 38.1193C17.0858 39.1807 17.5031 40.0995 17.9226 40.9481C18.3421 41.7265 18.8285 42.5752 19.248 43.2812C19.3886 43.5641 19.6676 43.847 19.8751 44.2C20.0848 44.4828 20.2232 44.8359 20.4329 45.1187C20.6427 45.4718 20.8525 45.8972 21.06 46.3204C21.3389 46.6734 21.5487 47.0989 21.8276 47.3817L23.5012 47.384ZM26.4311 47.384H28.0355C28.6625 46.8884 29.2918 46.1824 29.7782 45.4039C30.3361 44.6254 30.9631 43.7066 31.3826 42.9282C31.8713 42.0094 32.36 41.1608 32.7773 40.3122C33.1946 39.4636 33.5449 38.6851 33.8238 38.1193C33.0562 37.8365 32.0097 37.5536 30.9654 37.2707C29.9211 36.9879 28.455 36.705 26.4333 36.4221V47.384H26.4311ZM40.237 41.5862V41.5161C40.0964 41.3034 39.8175 41.0205 39.61 40.8078C39.4025 40.595 39.0521 40.3122 38.704 40.0995C38.4251 39.8867 38.077 39.674 37.6575 39.4636C37.238 39.2531 36.6801 38.968 36.1936 38.6851C35.9147 39.2508 35.426 40.242 34.7298 41.584C34.1028 42.9282 32.9871 44.5553 31.5924 46.3227C33.3352 46.0398 34.8704 45.4039 36.2651 44.5553C37.8003 43.7768 39.1235 42.7155 40.2393 41.584L40.237 41.5862ZM14.2965 39.3232V39.2531C13.8078 39.536 13.0402 39.889 12.2748 40.2443C11.438 40.5973 10.532 41.0228 9.69523 41.5885C10.1839 42.0139 10.6726 42.4371 11.0899 42.72C11.5094 43.073 11.9959 43.3559 12.4154 43.6388C13.183 44.1343 14.0889 44.6299 14.9949 45.0531C15.9009 45.4763 17.0166 45.9017 18.4113 46.3272C17.9226 45.7614 17.5745 45.0531 17.2264 44.4874C16.8783 43.9216 16.4587 43.3559 16.1106 42.7901C15.7625 42.2244 15.4836 41.5885 15.2047 41.0228C14.8566 40.457 14.5776 39.8913 14.2987 39.3255L14.2965 39.3232Z" fill="#BB2A2F"/>
</svg>

<svg xmlns="http://www.w3.org/2000/svg" width="50" height="50" fill="none"><path fill="#BB2A2F" d="M.002 24.188v-.07C.629 15.915 3.559 9.762 8.649 5.872c5.02-3.96 10.46-5.87 16.387-5.87 6.206-.07 11.994 2.05 17.156 6.293 5.23 4.173 7.81 10.396 7.81 18.457v.495c0 8.134-2.58 14.214-7.81 18.387C36.962 47.877 31.172 50 24.967 50h-.279c-6.067-.07-11.646-2.193-16.805-6.436C2.722 39.391.073 32.955.004 24.186l-.002.002Zm23.5-11.102V1.912h-1.674c-.348.425-.627.918-.906 1.344-.28.425-.558.848-.837 1.344-.28.426-.627.991-.837 1.414a8.182 8.182 0 0 0-.698 1.345c-.42.708-.768 1.414-1.047 2.05a14.04 14.04 0 0 0-.837 1.84c.42.283.906.636 1.464.848.627.213 1.256.426 1.883.566.699.143 1.326.213 1.884.283.627.07 1.185.143 1.604.143v-.003Zm2.93-11.172v11.102c.347 0 .767.07 1.184 0 .42 0 .906-.07 1.325-.143a23.514 23.514 0 0 0 2.373-.565c.767-.283 1.463-.636 1.952-1.062-.837-2.05-1.743-3.677-2.651-5.234a20.288 20.288 0 0 0-3.068-4.03v-.07H26.43v.002ZM18.9 2.55v-.07c-.489.212-.977.565-1.535.778-.489.213-1.116.496-1.605.779a31.492 31.492 0 0 0-2.93 1.697 25.423 25.423 0 0 0-2.58 2.05c.28.283.628.566.907.779.279.212.627.495.977.778.28.143.627.353.978.636.348.213.767.495 1.184.778.558-1.274 1.116-2.616 1.815-3.82a33.917 33.917 0 0 1 2.231-3.537c.07-.142.14-.282.279-.425.07-.07.14-.28.279-.423Zm21.337 5.232v-.07c-1.743-1.345-3.278-2.476-4.811-3.182s-3.068-1.414-4.463-1.98a14.471 14.471 0 0 1 2.72 3.89c.699 1.414 1.395 2.899 1.953 4.313.279-.143.627-.283 1.046-.566.348-.212.837-.425 1.257-.636.42-.282.767-.565 1.184-.848.42-.353.837-.636 1.116-.919l-.002-.002Zm-1.185 15.77h8.02c0-2.616-.558-5.091-1.605-7.637-.977-2.476-2.371-4.526-4.114-6.293v-.07a5.093 5.093 0 0 1-1.326 1.414c-.558.353-1.046.636-1.604.919-.348.212-.699.495-1.047.636-.348.212-.837.352-1.185.565.28.566.558 1.202.837 1.768.21.636.558 1.344.699 1.98.42 1.131.698 2.333.977 3.537.21 1.061.348 2.193.348 3.181ZM13.81 13.086v-.07c-.558-.283-1.185-.495-1.674-.778-.488-.353-.977-.709-1.394-.992a6.869 6.869 0 0 1-1.185-.778 10.866 10.866 0 0 1-.906-.849c-1.814 1.768-3.138 3.748-3.974 6.083-.906 2.333-1.536 4.952-1.814 7.78h8.577c0-1.98.28-3.89.768-5.8a19.083 19.083 0 0 1 1.602-4.596Zm9.691 10.396V15.35c-.558.07-1.256.07-1.883 0-.699-.07-1.395-.283-2.022-.495-.558-.143-1.256-.283-1.814-.496a6.476 6.476 0 0 1-1.743-.708c-.42.708-.767 1.557-1.046 2.475-.348.849-.558 1.768-.768 2.616-.14.85-.21 1.768-.279 2.546-.069.779-.14 1.557-.14 2.193h9.693l.002.002Zm2.93-7.99v7.99h10.32c0-.425 0-.918-.069-1.484-.14-.496-.21-1.132-.279-1.697-.21-.849-.42-1.768-.698-2.616-.279-.779-.558-1.557-.906-2.193-.14-.353-.279-.779-.42-1.062-.21-.353-.419-.565-.557-.778-.768.566-1.815.919-3.069 1.202-1.184.283-2.58.565-3.835.636h-.49l.003.002ZM11.438 25.815H2.86c0 1.202.21 2.546.558 4.173.348 1.698 1.047 3.255 1.814 4.952.348.849.768 1.697 1.185 2.546a48.43 48.43 0 0 0 1.605 2.405c.42-.283.836-.495 1.185-.708.42-.213.905-.496 1.325-.708.489-.213.977-.426 1.535-.709.489-.212 1.116-.495 1.743-.778-.558-1.767-1.185-3.465-1.604-5.375-.49-1.84-.768-3.677-.768-5.727v-.07Zm12.063 8.274v-8.273h-9.693c0 .565.069 1.414.21 2.262.069.85.278 1.768.42 2.689.278.991.488 1.98.767 2.829.279.848.557 1.557.836 2.193a28.506 28.506 0 0 1 3.348-1.062c.906-.283 1.742-.495 2.58-.566h.767c.279-.07.558-.07.767-.07l-.002-.002Zm2.93-8.273v8.203c.489.07 1.047.142 1.604.212.628.07 1.395.213 2.022.354l1.047.212c.348.143.767.213 1.115.283.42.143.837.213 1.257.353.348.143.698.213.977.353.906-2.333 1.464-4.243 1.814-5.87.348-1.557.489-2.899.489-4.03v-.07H26.431Zm20.64.07v-.07h-8.019v.425c-.069 1.344-.279 2.899-.558 4.526-.279 1.557-.906 3.394-1.742 5.657 1.115.566 2.162 1.132 2.999 1.698a14.706 14.706 0 0 1 2.162 1.767c1.185-1.202 2.231-2.829 3.137-4.951a25.3 25.3 0 0 0 1.884-6.436c.069-.426.069-.849.14-1.274v-1.345l-.002.003Zm-23.57 21.498V36.352a49.49 49.49 0 0 0-4.324.919c-1.116.283-1.953.566-2.51.848.419 1.062.836 1.98 1.256 2.83.42.778.905 1.626 1.325 2.332.14.283.42.566.627.919.21.283.348.636.558.919.21.353.42.778.627 1.201.279.353.489.779.768 1.062l1.673.002Zm2.93 0h1.604c.628-.496 1.257-1.202 1.743-1.98.558-.779 1.185-1.697 1.605-2.476.488-.919.977-1.767 1.394-2.616.418-.848.768-1.627 1.047-2.193-.768-.282-1.814-.565-2.859-.848-1.044-.283-2.51-.566-4.532-.849v10.962h-.002Zm13.806-5.798v-.07c-.14-.213-.42-.495-.627-.708a5.076 5.076 0 0 0-.906-.709 6.638 6.638 0 0 0-1.047-.635c-.419-.21-.977-.496-1.463-.779-.28.566-.768 1.557-1.464 2.899-.627 1.344-1.743 2.971-3.138 4.739 1.743-.283 3.278-.92 4.673-1.768 1.535-.778 2.858-1.84 3.974-2.971l-.002.002Zm-25.94-2.263v-.07c-.49.283-1.257.636-2.022.991-.837.353-1.743.779-2.58 1.345.489.425.978.848 1.395 1.131.42.353.906.636 1.325.919.768.495 1.674.99 2.58 1.414.906.423 2.022.849 3.416 1.274-.488-.566-.837-1.274-1.185-1.84-.348-.565-.767-1.131-1.115-1.697-.349-.566-.627-1.201-.906-1.767-.348-.566-.627-1.132-.906-1.698l-.002-.002Z"/></svg>
